img/icons/solid/normal/logo-reddit.svg

<?xml version="1.0" encoding="utf-8"?>
<!-- Generator: Adobe Illustrator 16.0.0, SVG Export Plug-In . SVG Version: 6.00 Build 0)  -->
<!DOCTYPE svg PUBLIC "-//W3C//DTD SVG 1.1//EN" "http://www.w3.org/Graphics/SVG/1.1/DTD/svg11.dtd">
<svg version="1.1" id="Filled_Icons" xmlns="http://www.w3.org/2000/svg" xmlns:xlink="http://www.w3.org/1999/xlink" x="0px"
	 y="0px" width="24px" height="24px" viewBox="0 0 24 24" enable-background="new 0 0 24 24" xml:space="preserve">
<path d="M24,11.5c0-1.654-1.346-3-3-3c-0.964,0-1.863,0.476-2.422,1.241c-1.639-1.006-3.747-1.64-6.064-1.723
	c0.064-1.11,0.4-3.049,1.508-3.686c0.72-0.414,1.733-0.249,3.01,0.478C17.189,6.317,18.452,7.5,20,7.5c1.654,0,3-1.346,3-3
	s-1.346-3-3-3c-1.382,0-2.536,0.944-2.883,2.217C15.688,3,14.479,2.915,13.521,3.466c-1.642,0.945-1.951,3.477-2.008,4.551
	C9.186,8.096,7.067,8.731,5.422,9.741C4.863,8.976,3.964,8.5,3,8.5c-1.654,0-3,1.346-3,3c0,1.319,0.836,2.443,2.047,2.844
	C2.019,14.56,2,14.778,2,15c0,3.86,4.486,7,10,7s10-3.14,10-7c0-0.222-0.019-0.441-0.048-0.658C23.148,13.938,24,12.795,24,11.5z
	 M2.286,13.366C1.522,13.077,1,12.351,1,11.5c0-1.103,0.897-2,2-2c0.635,0,1.217,0.318,1.59,0.816
	C3.488,11.17,2.683,12.211,2.286,13.366z M6,13.5c0-1.103,0.897-2,2-2s2,0.897,2,2c0,1.103-0.897,2-2,2S6,14.603,6,13.5z
	 M15.787,18.314c-1.063,0.612-2.407,0.949-3.787,0.949c-1.387,0-2.737-0.34-3.803-0.958c-0.239-0.139-0.321-0.444-0.182-0.683
	c0.139-0.24,0.444-0.322,0.683-0.182c1.828,1.059,4.758,1.062,6.59,0.008c0.239-0.138,0.545-0.055,0.683,0.184
	C16.108,17.871,16.026,18.177,15.787,18.314z M16,15.5c-1.103,0-2-0.897-2-2c0-1.103,0.897-2,2-2s2,0.897,2,2
	C18,14.603,17.103,15.5,16,15.5z M21.713,13.365c-0.397-1.155-1.201-2.195-2.303-3.048C19.784,9.818,20.366,9.5,21,9.5
	c1.103,0,2,0.897,2,2C23,12.335,22.468,13.073,21.713,13.365z"/>
</svg>

<svg xmlns="http://www.w3.org/2000/svg" viewBox="0 0 24 24"><path d="M24 11.5c0-1.65-1.35-3-3-3-.96 0-1.86.48-2.42 1.24-1.64-1-3.75-1.64-6.07-1.72.08-1.1.4-3.05 1.52-3.7.72-.4 1.73-.24 3 .5C17.2 6.3 18.46 7.5 20 7.5c1.65 0 3-1.35 3-3s-1.35-3-3-3c-1.38 0-2.54.94-2.88 2.22-1.43-.72-2.64-.8-3.6-.25-1.64.94-1.95 3.47-2 4.55-2.33.08-4.45.7-6.1 1.72C4.86 8.98 3.96 8.5 3 8.5c-1.65 0-3 1.35-3 3 0 1.32.84 2.44 2.05 2.84-.03.22-.05.44-.05.66 0 3.86 4.5 7 10 7s10-3.14 10-7c0-.22-.02-.44-.05-.66 1.2-.4 2.05-1.54 2.05-2.84zM2.3 13.37C1.5 13.07 1 12.35 1 11.5c0-1.1.9-2 2-2 .64 0 1.22.32 1.6.82-1.1.85-1.92 1.9-2.3 3.05zm3.7.13c0-1.1.9-2 2-2s2 .9 2 2-.9 2-2 2-2-.9-2-2zm9.8 4.8c-1.08.63-2.42.96-3.8.96-1.4 0-2.74-.34-3.8-.95-.24-.13-.32-.44-.2-.68.15-.24.46-.32.7-.18 1.83 1.06 4.76 1.06 6.6 0 .23-.13.53-.05.67.2.14.23.06.54-.18.67zm.2-2.8c-1.1 0-2-.9-2-2s.9-2 2-2 2 .9 2 2-.9 2-2 2zm5.7-2.13c-.38-1.16-1.2-2.2-2.3-3.05.38-.5.97-.82 1.6-.82 1.1 0 2 .9 2 2 0 .84-.53 1.57-1.3 1.87z"/></svg>
